logos/vibacs-logo-mobile.svg

<?xml version="1.0" encoding="UTF-8"?>
<svg viewBox="0 0 125 49" xmlns="http://www.w3.org/2000/svg">
<path d="m32.712 23.054c-0.0332 0.0067-0.0425 0.0053-0.0478 0.0093-1.0216 0.6634-2.0446 1.3253-3.0635 1.994-0.0439 0.0281-0.0758 0.107-0.0758 0.1632 0.0014 0.3704 4e-3 0.7408 0.0226 1.1113 0.0851 1.796 0.3826 3.5586 0.8237 5.2998 0.8104 3.2016 2.2119 6.1197 4.1263 8.797 0.8888 1.2424 1.8758 2.3952 2.9679 3.4584 1.2766 1.2424 2.6676 2.3403 4.1502 3.3192 1.0083 0.666 2.0578 1.2625 3.1631 1.756 0.1302 0.0575 0.2232 0.0508 0.3441-0.0281 0.9419-0.6232 1.8891-1.2384 2.835-1.8576 0.0531-0.0348 0.0996-0.0762 0.1661-0.127-8.8146-5.5794-13.996-13.514-15.412-23.896z" fill="#777A7E"/>
<path d="m82.856 18.546c-0.5274-2.5182-1.3909-4.912-2.6317-7.1614-0.8848-1.6061-1.9078-3.1187-3.1007-4.5122-0.9765-1.1407-2.0247-2.2066-3.1991-3.1374-0.8688-0.68739-1.7642-1.34-2.6716-1.9766-0.9844-0.69007-2.0485-1.2477-3.1445-1.7399-0.0558-0.025409-0.1515-0.025409-0.2019 0.0066867-1.023 0.66064-2.0419 1.3293-3.0981 2.0194 8.8292 5.582 14.016 13.518 15.436 23.933 1.0508-0.6861 2.0777-1.3547 3.0994-2.0314 0.0478-0.0321 0.0823-0.1231 0.0823-0.1859-0.0066-0.5109-0.0093-1.0231-0.0412-1.5326-0.081-1.2397-0.2736-2.4647-0.5287-3.6817z" fill="#777A7E"/>
<path d="m51.685 28.669c-0.279 0.8225-0.8955 1.2839-1.7019 1.5179-0.6602 0.1913-1.3391 0.2341-2.0219 0.2341-1.5278 0.0026-3.0555 0.0013-4.582 0-0.0438 0-0.0877-0.0054-0.1568-0.0094v-6.1504c0.0851-4e-3 0.1568-0.012 0.2285-0.012 1.5278 0 3.0556-0.0067 4.582 0 0.6523 4e-3 1.3019 0.0401 1.9356 0.2286 1.0017 0.2996 1.65 0.9281 1.8413 1.982 0.1342 0.7449 0.1196 1.4898-0.1248 2.2092zm-8.4626-12.837c0.0705-0.0054 0.1276-0.0134 0.1847-0.0134 1.6088 0 3.2176 0 4.8264 0.0094 0.5208 4e-3 1.0309 0.1056 1.5105 0.3223 0.6271 0.2835 1.0243 0.7569 1.1691 1.4416 0.1235 0.5844 0.1315 1.1702-0.0186 1.7466-0.2298 0.8799-0.8502 1.3547-1.6991 1.5366-0.4092 0.0882-0.8343 0.135-1.2541 0.1404-1.5119 0.016-3.025 0.0067-4.5368 0.0053-0.0572 0-0.1143-8e-3 -0.1821-0.0133v-5.1755zm13.608 10.935c-0.2551-2.0582-1.3763-3.4276-3.2893-4.1565-0.3295-0.1257-0.6776-0.1992-1.0283-0.3009 0.4264-0.214 0.8556-0.3945 1.2514-0.6339 0.7759-0.468 1.4401-1.0739 1.7975-1.9231 0.6815-1.6195 0.6178-3.2604-0.0664-4.8585-0.554-1.2919-1.6049-2.0662-2.8829-2.5516-1.1664-0.4427-2.3846-0.5925-3.6214-0.5951-3.4714-0.0067-6.9427-0.0027-10.414-0.0027h-0.2351v22.736c0.069 0.0027 0.1209 8e-3 0.1713 8e-3 3.6122 0 7.2244 8e-3 10.837-4e-3 1.4294-4e-3 2.8283-0.2059 4.1488-0.8051 1.3777-0.6258 2.3714-1.6275 2.9214-3.0464 0.4836-1.2451 0.5739-2.545 0.4105-3.8662z" fill="#777A7E"/>
<path d="m63.871 25.623c0.9924-3.132 1.9795-6.244 2.9666-9.356h0.069c0.9871 3.1133 1.9742 6.2253 2.9666 9.3547l-6.0022 0.0013zm12.437 4.4065c-0.8223-2.1691-1.65-4.337-2.471-6.5061-0.7081-1.8723-1.4056-3.7486-2.1123-5.6222-0.7466-1.9766-1.5039-3.9505-2.2438-5.9284-0.0678-0.1819-0.1515-0.2287-0.3322-0.2273-1.5052 0.0067-3.0117 0.0093-4.5168-0.0027-0.202 0-0.2817 0.0749-0.3455 0.2474-0.3361 0.9134-0.6815 1.8241-1.0229 2.7362-0.6802 1.8161-1.3617 3.6322-2.0432 5.4483-0.9366 2.4981-1.8745 4.9963-2.8111 7.4958-0.7174 1.9137-1.4348 3.8274-2.1508 5.7411-0.1316 0.3518-0.2604 0.7048-0.3973 1.0726 0.0665 0.0053 0.1023 0.0107 0.1395 0.0107 1.6314 0 3.2641-0.0027 4.8955 4e-3 0.1475 0 0.186-0.0642 0.2232-0.1846 0.1807-0.5817 0.3693-1.1621 0.5567-1.7425 0.3294-1.0271 0.6602-2.0528 0.991-3.0839h8.3815c0.5128 1.5941 1.0242 3.1668 1.5198 4.7449 0.0664 0.2113 0.1594 0.2674 0.3706 0.2661 1.5942-0.0094 3.1897-0.0054 4.7839-0.0054h0.2498c-0.0266-0.0909-0.0412-0.1551-0.0651-0.2166-0.5327-1.4163-1.0641-2.8325-1.5995-4.2474z" fill="#777A7E"/>
<path d="m10.288 28.885c-0.0479-0.1191-0.0731-0.1712-0.0891-0.2247-0.20188-0.6994-0.40116-1.3989-0.60176-2.0983-0.68949-2.4045-1.3803-4.8091-2.0698-7.2136-0.70676-2.462-1.4135-4.9227-2.1163-7.3861-0.0465-0.1618-0.11691-0.2193-0.29094-0.218-1.3949 0.0081-2.7898 0.0054-4.1834 0.0054h-0.93659c0.02657 0.0896 0.042512 0.1471 0.061111 0.2019 0.36002 1.0672 0.72137 2.1344 1.0827 3.2016 0.73865 2.1852 1.4786 4.3691 2.2186 6.5543 0.7599 2.2467 1.5185 4.4948 2.2784 6.7428 0.6523 1.9325 1.3059 3.8636 1.9542 5.7974 0.05845 0.1765 0.12886 0.2541 0.33345 0.2527 1.565-0.0107 3.13-0.0093 4.6962-0.0013 0.186 0.0013 0.263-0.0548 0.3228-0.234 1.0349-3.1602 2.0764-6.319 3.118-9.4764 1.3976-4.2327 2.7965-8.4653 4.194-12.698 0.0346-0.1043 0.0665-0.2086 0.105-0.3303h-5.1466c-1.6394 5.6877-3.2761 11.377-4.93 17.125z" fill="#777A7E"/>
<path d="m26.121 11.757h-4.849v22.725h4.849v-22.725z" fill="#777A7E"/>
<path d="m104.84 26.051c-1.447 0-2.893 0-4.34-0.0026-0.14 0-0.189 0.0454-0.21 0.1872-0.133 0.9281-0.3614 1.8255-0.8596 2.6319-0.5619 0.9107-1.3617 1.5138-2.3833 1.8134-0.8728 0.2554-1.7669 0.2822-2.6649 0.1792-1.3631-0.1565-2.4724-0.7636-3.296-1.8803-0.7054-0.9562-1.0522-2.0555-1.2515-3.2083-0.2736-1.59-0.2922-3.1882-0.0837-4.7863 0.1555-1.1889 0.4331-2.343 1.0801-3.3714 0.6722-1.0685 1.6008-1.7974 2.8363-2.101 0.9579-0.234 1.9224-0.246 2.8882-0.0722 1.2328 0.222 2.1867 0.876 2.8562 1.9365 0.4424 0.6994 0.6882 1.4791 0.8392 2.2868 0.04 0.2153 0.12 0.2822 0.342 0.2809 1.484-0.0107 2.966-0.0067 4.45-0.0067h0.277c-0.015-0.119-0.027-0.214-0.039-0.3089-0.13-1.0231-0.388-2.0127-0.804-2.9569-0.534-1.2143-1.266-2.2841-2.281-3.1507-0.698-0.5965-1.468-1.0766-2.3072-1.4363-1.1213-0.4801-2.2996-0.7182-3.5152-0.7958-1.7191-0.1096-3.4023 0.0535-5.0284 0.646-1.6832 0.6125-3.0887 1.6275-4.21 3.0277-1.0269 1.2825-1.6792 2.7549-2.079 4.345-0.3548 1.4109-0.477 2.8459-0.4438 4.2982 0.0346 1.5353 0.2684 3.0331 0.7705 4.4854 0.4012 1.1608 0.9619 2.2374 1.7271 3.2003 1.0123 1.2731 2.2677 2.2306 3.7623 2.8605 1.2368 0.5216 2.5334 0.7663 3.8712 0.8158 1.921 0.0709 3.7769-0.1792 5.5255-1.0405 1.324-0.6526 2.423-1.5686 3.272-2.7803 0.785-1.122 1.292-2.3684 1.567-3.7084 0.093-0.4494 0.152-0.9054 0.229-1.3681l3e-3 -0.0201h-0.505 5e-3z" fill="#777A7E"/>
<path d="m124.93 26.915c-0.102-0.8385-0.382-1.6209-0.897-2.3003-0.896-1.1862-2.083-1.9819-3.468-2.454-1.597-0.5456-3.215-1.0297-4.824-1.5419-0.915-0.2915-1.855-0.5176-2.695-1.0084-0.734-0.4279-1.174-1.0351-1.203-1.9217-0.033-1.0057 0.449-1.7506 1.395-2.0929 1.076-0.3905 2.179-0.4039 3.286-0.2073 1.289 0.2287 2.251 0.8906 2.761 2.0849 0.042 0.0989 0.097 0.2447 0.157 0.4319 2e-3 0.0054 4e-3 0.0121 6e-3 0.0174 6e-3 0.0201 0.011 0.0428 0.018 0.0629 0.051 0.1885 0.092 0.3798 0.138 0.5683 0.076 0.3972 0.126 0.8693 0.095 1.3855h4.866s0.084-1.1661-0.065-2.006c-0.237-1.9779-1.18-3.5439-2.744-4.7435-1.058-0.8118-2.261-1.3159-3.549-1.6115-1.613-0.3704-3.243-0.4105-4.883-0.1979-1.264 0.1645-2.48 0.4841-3.588 1.1421-0.964 0.5724-1.731 1.3413-2.25 2.347-0.405 0.7863-0.593 1.6329-0.649 2.5102-0.065 1.0311 0.034 2.0434 0.507 2.9782 0.597 1.1822 1.551 2.0127 2.699 2.6239 1.216 0.6472 2.519 1.0752 3.83 1.475 1.261 0.3852 2.524 0.761 3.78 1.1608 0.559 0.1779 1.073 0.4614 1.524 0.8479 0.526 0.4507 0.771 1.0365 0.799 1.7252 0.023 0.551-0.082 1.0672-0.396 1.5259-0.429 0.6272-1.07 0.9361-1.777 1.0832-1.396 0.2889-2.79 0.2394-4.142-0.2367-1.439-0.5055-2.315-1.5165-2.567-3.0451-0.039-0.238-0.06-0.4801-0.088-0.7128h-2e-3c-0.031-0.4052-0.02-0.7569-0.02-0.7569h-4.978c-8e-3 0.0909 0.042 0.7756 0.07 1.1528 7e-3 0.0829 0.012 0.1644 0.019 0.246v0.0027c5e-3 0.0642 0.012 0.1284 0.018 0.1926 0.141 1.3534 0.598 2.5864 1.421 3.6723 1.259 1.6623 2.967 2.6279 4.934 3.1762 1.586 0.4426 3.204 0.5643 4.845 0.4587 1.546-0.099 3.027-0.4293 4.39-1.1996 1.26-0.7115 2.2-1.7131 2.765-3.0612 0.507-1.2156 0.619-2.4821 0.462-3.7739z" fill="#777A7E"/>
</svg>

<svg width="125" height="49" viewBox="0 0 125 49" fill="none" xmlns="http://www.w3.org/2000/svg">
<path d="M32.7115 23.0539C32.6783 23.0606 32.669 23.0592 32.6637 23.0632C31.6421 23.7266 30.6191 24.3885 29.6002 25.0572C29.5563 25.0853 29.5244 25.1642 29.5244 25.2204C29.5258 25.5908 29.5284 25.9612 29.547 26.3317C29.6321 28.1277 29.9296 29.8903 30.3707 31.6315C31.1811 34.8331 32.5826 37.7512 34.497 40.4285C35.3858 41.6709 36.3728 42.8237 37.4649 43.8869C38.7415 45.1293 40.1325 46.2272 41.6151 47.2061C42.6234 47.8721 43.6729 48.4686 44.7782 48.9621C44.9084 49.0196 45.0014 49.0129 45.1223 48.934C46.0642 48.3108 47.0114 47.6956 47.9573 47.0764C48.0104 47.0416 48.0569 47.0002 48.1234 46.9494C39.3088 41.37 34.1277 33.4356 32.7115 23.0539Z" fill="#777A7E"/>
<path d="M82.8555 18.5457C82.3281 16.0275 81.4646 13.6337 80.2238 11.3843C79.339 9.77816 78.316 8.26563 77.1231 6.87213C76.1466 5.73139 75.0984 4.66553 73.924 3.73475C73.0552 3.04736 72.1598 2.39474 71.2524 1.75817C70.268 1.0681 69.2039 0.510433 68.1079 0.0182942C68.0521 -0.00711511 67.9564 -0.00711512 67.906 0.0249809C66.883 0.685624 65.8641 1.35429 64.8079 2.04436C73.6371 7.62639 78.8235 15.5621 80.2437 25.9773C81.2945 25.2912 82.3214 24.6226 83.3431 23.9459C83.3909 23.9138 83.4254 23.8228 83.4254 23.76C83.4188 23.2491 83.4161 22.7369 83.3842 22.2274C83.3032 20.9877 83.1106 19.7627 82.8555 18.5457Z" fill="#777A7E"/>
<path d="M51.6851 28.6693C51.4061 29.4918 50.7896 29.9532 49.9832 30.1872C49.323 30.3785 48.6441 30.4213 47.9613 30.4213C46.4335 30.4239 44.9058 30.4226 43.3793 30.4213C43.3355 30.4213 43.2916 30.4159 43.2225 30.4119V24.2615C43.3076 24.2575 43.3793 24.2495 43.451 24.2495C44.9788 24.2495 46.5066 24.2428 48.033 24.2495C48.6853 24.2535 49.3349 24.2896 49.9686 24.4781C50.9703 24.7777 51.6186 25.4062 51.8099 26.4601C51.9441 27.205 51.9295 27.9499 51.6851 28.6693ZM43.2225 15.8323C43.293 15.8269 43.3501 15.8189 43.4072 15.8189C45.016 15.8189 46.6248 15.8189 48.2336 15.8283C48.7544 15.8323 49.2645 15.9339 49.7441 16.1506C50.3712 16.4341 50.7684 16.9075 50.9132 17.5922C51.0367 18.1766 51.0447 18.7624 50.8946 19.3388C50.6648 20.2187 50.0444 20.6935 49.1955 20.8754C48.7863 20.9636 48.3612 21.0104 47.9414 21.0158C46.4295 21.0318 44.9164 21.0225 43.4046 21.0211C43.3474 21.0211 43.2903 21.0131 43.2225 21.0078V15.8323ZM56.8303 26.7677C56.5752 24.7095 55.454 23.3401 53.541 22.6112C53.2115 22.4855 52.8634 22.412 52.5127 22.3103C52.9391 22.0963 53.3683 21.9158 53.7641 21.6764C54.54 21.2084 55.2042 20.6025 55.5616 19.7533C56.2431 18.1338 56.1794 16.4929 55.4952 14.8948C54.9412 13.6029 53.8903 12.8286 52.6123 12.3432C51.4459 11.9005 50.2277 11.7507 48.9909 11.7481C45.5195 11.7414 42.0482 11.7454 38.5768 11.7454H38.3417V34.4814C38.4107 34.4841 38.4626 34.4894 38.513 34.4894C42.1252 34.4894 45.7374 34.4974 49.3496 34.4854C50.779 34.4814 52.1779 34.2795 53.4984 33.6803C54.8761 33.0545 55.8698 32.0528 56.4198 30.6339C56.9034 29.3888 56.9937 28.0889 56.8303 26.7677Z" fill="#777A7E"/>
<path d="M63.8713 25.6229C64.8637 22.4909 65.8508 19.3789 66.8379 16.2669C66.8604 16.2669 66.8844 16.2669 66.9069 16.2669C67.894 19.3802 68.8811 22.4922 69.8735 25.6216L63.8713 25.6229ZM76.3087 30.0294C75.4864 27.8603 74.6587 25.6924 73.8377 23.5233C73.1296 21.651 72.4321 19.7747 71.7254 17.9011C70.9788 15.9245 70.2215 13.9506 69.4816 11.9727C69.4138 11.7908 69.3301 11.744 69.1494 11.7454C67.6442 11.7521 66.1377 11.7547 64.6326 11.7427C64.4306 11.7427 64.3509 11.8176 64.2871 11.9901C63.951 12.9035 63.6056 13.8142 63.2642 14.7263C62.584 16.5424 61.9025 18.3585 61.221 20.1746C60.2844 22.6727 59.3465 25.1709 58.4099 27.6704C57.6925 29.5841 56.9751 31.4978 56.2591 33.4115C56.1275 33.7633 55.9987 34.1163 55.8618 34.4841C55.9283 34.4894 55.9641 34.4948 56.0013 34.4948C57.6327 34.4948 59.2654 34.4921 60.8968 34.4988C61.0443 34.4988 61.0828 34.4346 61.12 34.3142C61.3007 33.7325 61.4893 33.1521 61.6767 32.5717C62.0061 31.5446 62.3369 30.5189 62.6677 29.4878H71.0492C71.562 31.0819 72.0734 32.6546 72.569 34.2327C72.6354 34.444 72.7284 34.5001 72.9396 34.4988C74.5338 34.4894 76.1293 34.4934 77.7235 34.4934H77.9733C77.9467 34.4025 77.9321 34.3383 77.9082 34.2768C77.3755 32.8605 76.8441 31.4443 76.3087 30.0294Z" fill="#777A7E"/>
<path d="M10.2879 28.8847C10.24 28.7656 10.2148 28.7135 10.1988 28.66C9.99692 27.9606 9.79764 27.2611 9.59704 26.5617C8.90755 24.1572 8.21673 21.7526 7.52725 19.3481C6.82049 16.8861 6.11373 14.4254 5.41096 11.962C5.36446 11.8002 5.29405 11.7427 5.12002 11.744C3.7251 11.7521 2.33018 11.7494 0.936588 11.7494H0C0.0265699 11.839 0.0425118 11.8965 0.0611107 11.9513C0.421133 13.0185 0.782483 14.0857 1.14383 15.1529C1.88248 17.3381 2.62245 19.522 3.36242 21.7072C4.12232 23.9539 4.88089 26.202 5.64078 28.45C6.29308 30.3825 6.94669 32.3136 7.595 34.2474C7.65345 34.4239 7.72386 34.5015 7.92845 34.5001C9.49342 34.4894 11.0584 34.4908 12.6247 34.4988C12.8107 34.5001 12.8877 34.444 12.9475 34.2648C13.9824 31.1046 15.0239 27.9458 16.0655 24.7884C17.4631 20.5557 18.862 16.3231 20.2595 12.0904C20.2941 11.9861 20.326 11.8818 20.3645 11.7601H15.2179C13.5785 17.4478 11.9418 23.1368 10.2879 28.8847Z" fill="#777A7E"/>
<path d="M26.1208 11.7574H21.2718V34.4827H26.1208V11.7574Z" fill="#777A7E"/>
<path d="M104.842 26.0508C103.395 26.0508 101.949 26.0508 100.502 26.0482C100.362 26.0482 100.313 26.0936 100.292 26.2354C100.159 27.1635 99.9306 28.0609 99.4324 28.8673C98.8705 29.778 98.0707 30.3811 97.0491 30.6807C96.1763 30.9361 95.2822 30.9629 94.3842 30.8599C93.0211 30.7034 91.9118 30.0963 91.0882 28.9796C90.3828 28.0234 90.036 26.9241 89.8367 25.7713C89.5631 24.1813 89.5445 22.5831 89.753 20.985C89.9085 19.7961 90.1861 18.642 90.8331 17.6136C91.5053 16.5451 92.4339 15.8162 93.6694 15.5126C94.6273 15.2786 95.5918 15.2666 96.5576 15.4404C97.7904 15.6624 98.7443 16.3164 99.4138 17.3769C99.8562 18.0763 100.102 18.856 100.253 19.6637C100.293 19.879 100.373 19.9459 100.595 19.9446C102.079 19.9339 103.561 19.9379 105.045 19.9379H105.322C105.307 19.8189 105.295 19.7239 105.283 19.629C105.153 18.6059 104.895 17.6163 104.479 16.6721C103.945 15.4578 103.213 14.388 102.198 13.5214C101.5 12.9249 100.73 12.4448 99.8908 12.0851C98.7695 11.605 97.5912 11.3669 96.3756 11.2893C94.6565 11.1797 92.9733 11.3428 91.3472 11.9353C89.664 12.5478 88.2585 13.5628 87.1372 14.963C86.1103 16.2455 85.458 17.7179 85.0582 19.308C84.7034 20.7189 84.5812 22.1539 84.6144 23.6062C84.649 25.1415 84.8828 26.6393 85.3849 28.0916C85.7861 29.2524 86.3468 30.329 87.112 31.2919C88.1243 32.565 89.3797 33.5225 90.8743 34.1524C92.1111 34.674 93.4077 34.9187 94.7455 34.9682C96.6665 35.0391 98.5224 34.789 100.271 33.9277C101.595 33.2751 102.694 32.3591 103.543 31.1474C104.328 30.0254 104.835 28.779 105.11 27.439C105.203 26.9896 105.262 26.5336 105.339 26.0709L105.342 26.0508H104.837H104.842Z" fill="#777A7E"/>
<path d="M124.934 26.9148C124.832 26.0763 124.552 25.2939 124.037 24.6145C123.141 23.4283 121.954 22.6326 120.569 22.1605C118.972 21.6149 117.354 21.1308 115.745 20.6186C114.83 20.3271 113.89 20.101 113.05 19.6102C112.316 19.1823 111.876 18.5751 111.847 17.6885C111.814 16.6828 112.296 15.9379 113.242 15.5956C114.318 15.2051 115.421 15.1917 116.528 15.3883C117.817 15.617 118.779 16.2789 119.289 17.4732C119.331 17.5721 119.386 17.7179 119.446 17.9051C119.448 17.9105 119.45 17.9172 119.452 17.9225C119.458 17.9426 119.463 17.9653 119.47 17.9854C119.521 18.1739 119.562 18.3652 119.608 18.5537C119.684 18.9509 119.734 19.423 119.703 19.9392H124.569C124.569 19.9392 124.653 18.7731 124.504 17.9332C124.267 15.9553 123.324 14.3893 121.76 13.1897C120.702 12.3779 119.499 11.8738 118.211 11.5782C116.598 11.2078 114.968 11.1677 113.328 11.3803C112.064 11.5448 110.848 11.8644 109.74 12.5224C108.776 13.0948 108.009 13.8637 107.49 14.8694C107.085 15.6557 106.897 16.5023 106.841 17.3796C106.776 18.4107 106.875 19.423 107.348 20.3578C107.945 21.54 108.899 22.3705 110.047 22.9817C111.263 23.6289 112.566 24.0569 113.877 24.4567C115.138 24.8419 116.401 25.2177 117.657 25.6175C118.216 25.7954 118.73 26.0789 119.181 26.4654C119.707 26.9161 119.952 27.5019 119.98 28.1906C120.003 28.7416 119.898 29.2578 119.584 29.7165C119.155 30.3437 118.514 30.6526 117.807 30.7997C116.411 31.0886 115.017 31.0391 113.665 30.563C112.226 30.0575 111.35 29.0465 111.098 27.5179C111.059 27.2799 111.038 27.0378 111.01 26.8051H111.008C110.977 26.3999 110.988 26.0482 110.988 26.0482H106.01C106.002 26.1391 106.052 26.8238 106.08 27.201C106.087 27.2839 106.092 27.3654 106.099 27.447V27.4497C106.104 27.5139 106.111 27.5781 106.117 27.6423C106.258 28.9957 106.715 30.2287 107.538 31.3146C108.797 32.9769 110.505 33.9425 112.472 34.4908C114.058 34.9334 115.676 35.0551 117.317 34.9495C118.863 34.8505 120.344 34.5202 121.707 33.7499C122.967 33.0384 123.907 32.0368 124.472 30.6887C124.979 29.4731 125.091 28.2066 124.934 26.9148Z" fill="#777A7E"/>
</svg>
